images/icon14.svg

<svg height="32" viewBox="0 0 32 32" width="32" xmlns="http://www.w3.org/2000/svg"><g fill="none" fill-rule="evenodd" transform=""><g fill="#231f20"><path d="m16 17.3278341c-.4986074 0-.8910222-.4254815-.850963-.9224297l.850963-10.53439996.850963 10.53439996c.0400592.4969482-.3523556.9224297-.850963.9224297"/><path d="m16 4.89901037c-.5064296 0-.9281185.38897778-.9688889.89374815l-.8508444 10.53439998c-.0410074.5065482.1332148 1.0113185.4778666 1.3848889.3445334.3735704.8336593.5877333 1.3418667.5877333s.9973333-.2141629 1.3418667-.5877333c.3446518-.3735704.518874-.8783407.4778666-1.3848889l-.8508444-10.53439998c-.0407704-.50477037-.4624593-.89374815-.9688889-.89374815m0 .97197037.850963 10.53439996c.0401777.4969482-.3523556.9224297-.850963.9224297s-.8911407-.4254815-.850963-.9224297z"/><path d="m15.14624 16.4740741c0-.4986074.4254815-.8910222.9224296-.850963l6.9788445.850963-6.9788445.8509629c-.4969481.0400593-.9224296-.3523555-.9224296-.8509629"/><path d="m15.9987319 14.64832c-1.0059852 0-1.8244741.8190815-1.8244741 1.8257778s.8184889 1.8257778 1.8244741 1.8257778c.0491851 0 .0989629-.0021334.1481481-.0060445.0131556-.0010667.0263111-.0023704.0394667-.0039111l6.9788444-.850963c.4877037-.0594963.8542815-.4736.8542815-.9648592 0-.4913778-.3665778-.905363-.8542815-.9648593l-6.9788444-.8509629c-.0131556-.0015408-.0263111-.0028445-.0394667-.0040297-.0490667-.0039111-.098963-.0059259-.1481481-.0059259m0 .9719704c.0231111 0 .0464592.0009481.0699259.0028444l6.9788444.850963-6.9788444.8508444c-.0233482.0020148-.0468148.0028445-.0699259.0028445-.4663704 0-.8523852-.3786667-.8523852-.8536889s.3861333-.8538074.8523852-.8538074"/></g><path d="m16 3.55555556c-6.86186667 0-12.44444444 5.58257777-12.44444444 12.44444444 0 6.8618667 5.58257777 12.4444444 12.44444444 12.4444444 6.8618667 0 12.4444444-5.5825777 12.4444444-12.4444444 0-6.86186667-5.5825777-12.44444444-12.4444444-12.44444444m0 28.44444444c-8.8224 0-16-7.1776-16-16s7.1776-16 16-16 16 7.1776 16 16-7.1776 16-16 16" fill="#4bccef"/></g></svg>

<?xml version="1.0" encoding="UTF-8"?>
<svg width="32px" height="32px" viewBox="0 0 32 32" version="1.1" xmlns="http://www.w3.org/2000/svg" xmlns:xlink="http://www.w3.org/1999/xlink">
    <!-- Generator: sketchtool 50.2 (55047) - http://www.bohemiancoding.com/sketch -->
    <title>1F9EAA57-405E-4F00-8F7E-48C5F8EA70C8</title>
    <desc>Created with sketchtool.</desc>
    <defs></defs>
    <g id="Future-Project-Desktop" stroke="none" stroke-width="1" fill="none" fill-rule="evenodd">
        <g id="Future-Camp" transform="translate(-167.000000, -2188.000000)">
            <g id="future-camp/tour" transform="translate(0.000000, 1588.000000)">
                <g id="side-data" transform="translate(164.000000, 397.000000)">
                    <g id="Group-11" transform="translate(3.000000, 203.000000)">
                        <path d="M16,17.3278341 C15.5013926,17.3278341 15.1089778,16.9023526 15.149037,16.4054044 L16,5.87100444 L16.850963,16.4054044 C16.8910222,16.9023526 16.4986074,17.3278341 16,17.3278341" id="Fill-1" fill="#231F20"></path>
                        <path d="M16,4.89901037 C15.4935704,4.89901037 15.0718815,5.28798815 15.0311111,5.79275852 L14.1802667,16.3271585 C14.1392593,16.8337067 14.3134815,17.338477 14.6581333,17.7120474 C15.0026667,18.0856178 15.4917926,18.2997807 16,18.2997807 C16.5082074,18.2997807 16.9973333,18.0856178 17.3418667,17.7120474 C17.6865185,17.338477 17.8607407,16.8337067 17.8197333,16.3271585 L16.9688889,5.79275852 C16.9281185,5.28798815 16.5064296,4.89901037 16,4.89901037 M16,5.87098074 L16.850963,16.4053807 C16.8911407,16.9023289 16.4986074,17.3278104 16,17.3278104 C15.5013926,17.3278104 15.1088593,16.9023289 15.149037,16.4053807 L16,5.87098074" id="Fill-3" fill="#231F20"></path>
                        <path d="M15.14624,16.4740741 C15.14624,15.9754667 15.5717215,15.5830519 16.0686696,15.6231111 L23.0475141,16.4740741 L16.0686696,17.325037 C15.5717215,17.3650963 15.14624,16.9726815 15.14624,16.4740741" id="Fill-5" fill="#231F20"></path>
                        <path d="M15.9987319,14.64832 C14.9927467,14.64832 14.1742578,15.4674015 14.1742578,16.4740978 C14.1742578,17.4807941 14.9927467,18.2998756 15.9987319,18.2998756 C16.047917,18.2998756 16.0976948,18.2977422 16.14688,18.2938311 C16.1600356,18.2927644 16.1731911,18.2914607 16.1863467,18.28992 L23.1651911,17.438957 C23.6528948,17.3794607 24.0194726,16.965357 24.0194726,16.4740978 C24.0194726,15.98272 23.6528948,15.5687348 23.1651911,15.5092385 L16.1863467,14.6582756 C16.1731911,14.6567348 16.1600356,14.6554311 16.14688,14.6542459 C16.0978133,14.6503348 16.047917,14.64832 15.9987319,14.64832 M15.9987319,15.6202904 C16.021843,15.6202904 16.0451911,15.6212385 16.0686578,15.6231348 L23.0475022,16.4740978 L16.0686578,17.3249422 C16.0453096,17.326957 16.021843,17.3277867 15.9987319,17.3277867 C15.5323615,17.3277867 15.1463467,16.94912 15.1463467,16.4740978 C15.1463467,15.9990756 15.53248,15.6202904 15.9987319,15.6202904" id="Fill-7" fill="#231F20"></path>
                        <path d="M16,3.55555556 C9.13813333,3.55555556 3.55555556,9.13813333 3.55555556,16 C3.55555556,22.8618667 9.13813333,28.4444444 16,28.4444444 C22.8618667,28.4444444 28.4444444,22.8618667 28.4444444,16 C28.4444444,9.13813333 22.8618667,3.55555556 16,3.55555556 M16,32 C7.1776,32 0,24.8224 0,16 C0,7.1776 7.1776,0 16,0 C24.8224,0 32,7.1776 32,16 C32,24.8224 24.8224,32 16,32" id="Fill-9" fill="#4BCCEF"></path>
                    </g>
                </g>
            </g>
        </g>
    </g>
</svg>
